X: 4
T: Na Ceannabhain Bhana
R: slip jig
M: 9/8
L: 1/8
K: Dmaj
|f2d edB dBA |BdA ABd e3|fdd edB dBA| BdA ABc d2e|
fdd edB dBA |BdA ABd e3|fdd edB dBA| BdA ABc d2e||
|:faa baa fed |faa baf e3|faa baa fed |dBA ABc d2g|
faa baa fed | dfa baf e2 g | faa baa fed | dBA ABc d3 ||


Tune 612	Setting 612

